!!!!SEGMENT: pl-kk--kk-i-7--047-003_cadeac-pierre--missa-dei-patris-sanctus.krn
!!!cenid: 16xx:854
!!!COM: Cadéac, Pierre
!!!COM-rismID:
!!!CDT: ~1500-~1599
!!!CNT: German
!!!OPR: Missa Dei Patris
!!!OTL: Sanctus
!!!OMV: 003
!!!PDT:
!!!AGN: Sacred; Mass
!!!SMS-siglum: PL-Kk
!!!SMS-shelfmark: Kk.I.7
!!!SMS-shelfwork: 047-003 M
!!!SMS-variant:
!!!SMS-altvar:
!!!NIFC-rismSourceID: 300258124
!!!NIFC-islandoraID: pl-kk:1956
!!!URL-pdf-islandora: https://repozytorium.nifc.pl/islandora/object/pl-kk%3A1956/datastream/PDF/view
!!!URL-scan: https://polish.musicsources.pl/pl/lokalizacje/galeria/rekopisy/6140 @EN{Scan on Polish Music Herritage in Open Access Website} @PL{Skany w portalu Dziedzictwo Muzyki Polskiej w otwartym dostępie}
!!!ONB-nifc: UWAGA: C (skan 0042, s.79), A (0126-0127, s.73-74), T (0202-0203, s.69-70), B (0292, s.70). Części Mszy: 1. Kyrie, 2. Et in terra, 3. Sanctus, 4. Agnus Dei
!!!AIN: 1 alto 1 bass 1 soprn 1 tenor
!!!key:
**kern	**text	**kern	**text	**kern	**text	**kern	**text
*part4	*part4	*part3	*part3	*part2	*part2	*part1	*part1
*staff4	*staff4	*staff3	*staff3	*staff2	*staff2	*staff1	*staff1
*Ibass	*	*Itenor	*	*Ialto	*	*Isoprn	*
*I"BASSVS.	*	*I"TENOR.	*	*I"ALTVS.	*	*I"CANTVS.	*
*I'B	*	*I'T	*	*I'A	*	*I'S	*
*clefF4	*	*clefC3	*	*clefC3	*	*clefC1	*
*k[b-]	*	*k[b-]	*	*k[b-]	*	*k[b-]	*
*g:dor	*	*g:dor	*	*g:dor	*	*g:dor	*
*M2/1	*	*M2/1	*	*M2/1	*	*M2/1	*
*met(C|)	*	*met(C|)	*	*met(C|)	*	*met(C|)	*
*>[A,B,C,D,C]	*	*>[A,B,C,D,C]	*	*>[A,B,C,D,C]	*	*>[A,B,C,D,C]	*
=1-	=1-	=1-	=1-	=1-	=1-	=1-	=1-
*>A	*	*>A	*	*>A	*	*>A	*
*	*	*	*	*lig	*	*	*
!LO:TX:t=P:problem=znaki [B- BB-]	!	!	!	!	!	!	!
!LO:TX:t=P:problem=przed kluczem inicjał S	!	!LO:TX:t=P:problem=przed kluczem inicjał S	!	!LO:TX:t=P:problem=przed kluczem inicjał S	!	!LO:TX:t=P:problem=przed kluczem inicjał S	!
!LO:TX:t=P:problem=kreska pseudotaktowa	!	!	!	!	!	!	!
00r	.	1r	.	1G	San-	0g	San-
*	*	*lig	*	*	*	*	*
.	.	1G	San-	1.d	.	.	.
*	*	*	*	*Xlig	*	*	*
=2-	=2-	=2-	=2-	=2-	=2-	=2-	=2-
.	.	1.d	.	.	.	2.f/	.
.	.	.	.	2.B-/	.	.	.
!	!	!	!	!	!	!LO:TX:t=P:problem=kreska pseudotaktowa	!
.	.	.	.	.	.	4d/	.
.	.	.	.	.	.	2f/	.
.	.	.	.	4c\	.	.	.
*	*	*Xlig	*	*2\right	*	*	*
!	!	!	!	!LO:TX:t=P:problem=kreska pseudotaktowa	!	!	!
.	.	4c/	.	2d\	.	2g/	.
!	!	!LO:TX:t=P:problem=kreska pseudotaktowa	!	!	!	!	!
.	.	4B-/	.	.	.	.	.
=3-	=3-	=3-	=3-	=3-	=3-	=3-	=3-
*	*	*2\right	*	*	*	*	*
2r	.	2c\	.	2e\	.	1a	.
*2\right	*	*	*	*	*	*	*
2D\	San-	2d\	.	2f\	.	.	.
1.G	.	4G/	.	1g	-ctus	1.b-	.
.	.	4A/	.	.	.	.	.
.	.	4B-/	.	.	.	.	.
.	.	4c/	.	.	.	.	.
=4-	=4-	=4-	=4-	=4-	=4-	=4-	=4-
!	!	!LO:TX:t=P:problem=kreska pseudotaktowa	!	!	!	!	!
*	*	*	*	*lig	*	*	*
.	.	1d	-ctus	1G	San-	.	.
4F\	.	.	.	.	.	4a\	.
!LO:TX:t=P:problem=kreska pseudotaktowa	!	!	!	!	!	!LO:TX:t=P:problem=kreska pseudotaktowa	!
4E\	.	.	.	.	.	4g\	.
*	*	*	*	*	*	*2\right	*
2F\	.	0rA	.	1.d	.	2a,\	-ctus
2G\	.	.	.	.	.	2d/	San-
*	*	*	*	*Xlig	*	*	*
=5-	=5-	=5-	=5-	=5-	=5-	=5-	=5-
2D\	.	.	.	.	.	2f/	.
!LO:TX:t=P:problem=kreska pseudotaktowa	!	!	!	!	!	!	!
2G\	.	.	.	4c/	.	2g\	.
!	!	!	!	!LO:TX:t=P:problem=kreska pseudotaktowa	!	!	!
.	.	.	.	4B-/	.	.	.
2F\	.	2rA	.	2c\	.	2a\	.
*	*	*	*ij	*	*	*	*
2D\	.	2F/	San-	2d\	.	1b-\	.
=6-	=6-	=6-	=6-	=6-	=6-	=6-	=6-
1E	.	2.B-/	.	2G/	.	.	.
.	.	.	.	1g	.	4a\	.
!	!	!	!	!	!	!LO:TX:t=P:problem=kreska pseudotaktowa	!
.	.	4c/	.	.	.	4g\	.
!LO:TX:t=P:problem=kreska pseudotaktowa	!	!	!	!	!	!	!
0D	-ctus	1d	.	.	.	2b-\	.
.	.	.	.	2.f\	.	2.a\	.
=7-	=7-	=7-	=7-	=7-	=7-	=7-	=7-
!	!	!LO:TX:t=P:problem=kreska pseudotaktowa	!	!	!	!	!
.	.	0A	-ctus	.	.	.	.
*	*	*	*Xij	*	*	*	*
.	.	.	.	4e\	.	4g/	.
!	!	!	!	!	!	!LO:TX:t=P:problem=kreska pseudotaktowa	!
.	.	.	.	1d	.	2f/	.
1rA	.	.	.	.	.	1e	.
!	!	!	!	!LO:TX:t=P:problem=kreska pseudotaktowa	!	!	!
.	.	.	.	2c\	.	.	.
=8-	=8-	=8-	=8-	=8-	=8-	=8-	=8-
*lig	*ij	*	*	*	*	*	*
!	!	!	!	!	!	!LO:TX:t=P:problem=kreska pseudotaktowa	!
1GG	San-	2rA	.	1B-	.	1d	-ctus
.	.	1G	San-	.	.	.	.
!	!	!	!	!LO:TX:t=P:problem=kreska pseudotaktowa	!	!LO:TX:t=P:problem=kreska pseudotaktowa	!
1.D	.	.	.	1A,	-ctus	1r	.
.	.	2F/	.	.	.	.	.
*Xlig	*	*	*	*	*	*	*
=9-	=9-	=9-	=9-	=9-	=9-	=9-	=9-
.	.	1B-	.	1d	San-	2d/	San-
4C/	.	.	.	.	.	1g	.
!LO:TX:t=P:problem=kreska pseudotaktowa	!	!	!	!	!	!	!
4BB-/	.	.	.	.	.	.	.
2C/	.	2A/	.	2e\	.	.	.
!	!	!	!	!	!	!LO:TX:t=P:problem=kreska pseudotaktowa	!
2D/	.	1d\	.	2f\	.	2f/	.
=10-	=10-	=10-	=10-	=10-	=10-	=10-	=10-
!LO:TX:t=P:problem=kreska pseudotaktowa	!	!	!	!	!	!	!
*	*	*	*	*	*	*lig	*
1GG	-ctus	.	.	2d\	.	1b-	.
*	*Xij	*	*	*	*	*	*
.	.	4c/	.	1g	.	.	.
!	!	!LO:TX:t=P:problem=kreska pseudotaktowa	!	!	!	!	!
.	.	4B-/	.	.	.	.	.
2r	.	2c\	.	.	.	1a	.
!	!	!	!	!LO:TX:t=P:problem=kreska pseudotaktowa	!	!	!
2.D\	Do-	2d\	.	2f\	.	.	.
*	*	*	*	*	*	*Xlig	*
=11-	=11-	=11-	=11-	=11-	=11-	=11-	=11-
!	!	!LO:TX:t=P:problem=kreska pseudotaktowa	!	!	!	!	!
.	.	1A	-ctus	2d\	.	2.f/	.
4D\	-mi-	.	.	.	.	.	.
!LO:TX:t=P:problem=kreska pseudotaktowa	!	!	!	!	!	!	!
2D\	-n(us)	.	.	2f\	.	.	.
!	!	!	!	!	!	!LO:TX:t=P:problem=kreska pseudotaktowa	!
.	.	.	.	.	.	4g/	.
!	!	!LO:TX:t=P:problem=kreska pseudotaktowa	!	!	!	!	!
2C/	D(e-	0r	.	2e\	.	2a\	.
2BB-/	-us)	.	.	1d\	.	1b-\	.
=12-	=12-	=12-	=12-	=12-	=12-	=12-	=12-
2E-X\	Sab-	.	.	.	.	.	.
2E-\	-ba-	.	.	2c\	.	4a\	.
!	!	!	!	!	!	!LO:TX:t=P:problem=kreska pseudotaktowa	!
.	.	.	.	.	.	4g\	.
!LO:TX:t=P:problem=kreska pseudotaktowa	!	!	!	!LO:TX:t=P:problem=kreska pseudotaktowa	!	!	!
0D	-oth	2rA	.	1d	-ctus.	1.f	.
.	.	2.A/	Do-	.	.	.	.
=13-	=13-	=13-	=13-	=13-	=13-	=13-	=13-
.	.	.	.	2r	.	.	.
.	.	4A/	-mi-	.	.	.	.
*	*	*	*	*	*	*custos:g	*
!	!	!LO:TX:t=P:problem=kreska pseudotaktowa	!	!	!	!LO:TX:t=P:problem=kreska pseudotaktowa	!
.	.	2A/	-n(us)	2.d\	San-	2f/	-ctus
!	!	!	!	!	!	!LO:LB:g=original	!
*	*	*	*	*	*	*	*ij
00r	.	2G/	De-	.	.	2g\	San-
.	.	.	.	4e\	.	.	.
.	.	2F/	-(us)	1f\	.	2a\	.
=14-	=14-	=14-	=14-	=14-	=14-	=14-	=14-
.	.	2B-/	Sab-	.	.	2d/	.
.	.	2B-/	-ba-	4e\	.	1dd	.
*	*	*	*	*custos:e	*	*	*
!	!	!	!	!LO:TX:t=P:problem=kreska pseudotaktowa	!	!	!
.	.	.	.	4d\	.	.	.
!	!	!	!	!LO:LB:g=original	!	!	!
!	!	!LO:TX:t=P:problem=kreska pseudotaktowa	!	!	!	!	!
.	.	1A	-oth	1e	.	.	.
.	.	.	.	.	.	2cc#X\	.
=15-	=15-	=15-	=15-	=15-	=15-	=15-	=15-
!	!	!	!	!	!	!LO:TX:t=P:problem=kreska pseudotaktowa	!
.	.	2r	.	2d,\	-ctus	1dd,	-ctus
*	*	*	*	*	*	*	*Xij
.	.	2.d\	Do-	2.f\	Do-	.	.
!LO:TX:t=P:problem=kreska pseudotaktowa	!	!	!	!	!	!	!
00r	.	.	.	.	.	2.a\	Do-
.	.	4d\	-mi-	4f\	-mi-	.	.
*	*	*custos:c	*	*	*	*	*
!	!	!LO:TX:t=P:problem=kreska pseudotaktowa	!	!LO:TX:t=P:problem=kreska pseudotaktowa	!	!	!
.	.	2d\	-n(us)	2f\	-n(us)	.	.
.	.	.	.	.	.	4a\	-mi-
!	!	!LO:LB:g=original	!	!	!	!	!
=16-	=16-	=16-	=16-	=16-	=16-	=16-	=16-
.	.	2c/	De-	2e\	DE-	2a\	-n(us)
!	!	!	!	!	!	!LO:TX:t=P:problem=kreska pseudotaktowa	!
.	.	1B-	-us	1d	.	2g\	De-
.	.	.	.	.	.	2f/	-us
.	.	4A/	Sab-	4c/	-US	1b-\	Sab-
!	!	!	!	!LO:TX:t=P:problem=kreska pseudotaktowa	!	!	!
.	.	4G/	.	4B-/	.	.	.
=17-	=17-	=17-	=17-	=17-	=17-	=17-	=17-
*	*	*lig	*	*	*	*	*
.	.	1F	-ba-	2.c/	Sab-	.	.
!	!	!	!	!	!	!LO:TX:t=P:problem=kreska pseudotaktowa	!
.	.	.	.	.	.	2a\	.
.	.	.	.	4c/	-ba-	.	.
!	!	!LO:TX:t=P:problem=kreska pseudotaktowa	!	!LO:TX:t=P:problem=kreska pseudotaktowa	!	!	!
2r	.	1B-	-oth.	1B-	-oth	1.b-	.
*	*ij	*	*	*	*	*	*
2.G\	Do-	.	.	.	.	.	.
*	*	*Xlig	*	*	*	*	*
=18-	=18-	=18-	=18-	=18-	=18-	=18-	=18-
!	!	!LO:TX:t=P:problem=kreska pseudotaktowa	!	!	!	!	!
.	.	1rc	.	2r	.	.	.
4G\	-mi-	.	.	.	.	.	.
2G\	-n(us)	.	.	2.d\	Do-	4a\	-ba-
.	.	.	.	.	.	4g\	.
!	!	!	!	!	!	!LO:TX:t=P:problem=kreska pseudotaktowa	!
2F\	D(e-	2r	.	.	.	0a	-oth.
.	.	.	.	4d\	-mi-	.	.
!	!	!	!	!LO:TX:t=P:problem=kreska pseudotaktowa	!	!	!
2.D/	-us)	2.d\	Do-	2d\	-n(us)	.	.
*	*Xij	*	*	*	*	*	*
=19-	=19-	=19-	=19-	=19-	=19-	=19-	=19-
.	.	.	.	1.f	DE-	.	.
4C/	.	4d\	-mi-	.	.	.	.
!	!	!LO:TX:t=P:problem=kreska pseudotaktowa	!	!	!	!	!
4D/	.	2d\	-n(us)	.	.	.	.
!LO:TX:t=P:problem=kreska pseudotaktowa	!	!	!	!	!	!	!
4Eny/	.	.	.	.	.	.	.
!LO:LB:g=original	!	!	!	!	!	!	!
2F\	Sab-	2c/	DE-	.	.	2r	.
*	*	*	*	*	*	*	*ij
2G\	.	2B-/	.	4e\	.	2.g/	Do-
.	.	.	.	4d\	.	.	.
=20-	=20-	=20-	=20-	=20-	=20-	=20-	=20-
2C/	.	1e	-US	1c	-US	.	.
.	.	.	.	.	.	4g/	-mi-
!	!	!	!	!	!	!LO:TX:t=P:problem=kreska pseudotaktowa	!
2C/	-ba-	.	.	.	.	2g/	-n(us)
!	!	!	!	!LO:TX:t=P:problem=kreska pseudotaktowa	!	!	!
!LO:TX:t=P:problem=kreska pseudotaktowa	!	!	!	!LO:TX:t=P:♭above:problem	!	!	!
1D	-oth	1.d	Sab-	1B-X	.	2f/	De-
.	.	.	.	.	.	2d,/	-us
=21-	=21-	=21-	=21-	=21-	=21-	=21-	=21-
2r	.	.	.	2r	.	2f/	Sab-
*	*ij	*	*	*	*ij	*	*
2.D\	Do-	4c/	.	2.d\	Do-	2g\	-ba-
.	.	4B-/	.	.	.	.	.
!	!	!	!	!	!	!LO:TX:t=P:problem=kreska pseudotaktowa	!
.	.	2.A/	.	.	.	1a	-oth.
*	*	*	*	*	*	*	*Xij
4D\	-mi-	.	.	4d\	-mi-	.	.
!LO:TX:t=P:problem=kreska pseudotaktowa	!	!	!	!LO:TX:t=P:problem=kreska pseudotaktowa	!	!	!
2D\	-n(us)	.	.	2f\	-n(us)	.	.
.	.	4B-/	.	.	.	.	.
=22-	=22-	=22-	=22-	=22-	=22-	=22-	=22-
2C/	D(e-	2c\	.	2e\	DE-	0r	.
!	!	!	!	!LO:TX:t=P:problem=kreska pseudotaktowa	!	!	!
2BB-/	-us)	1d	.	2d\	-US	.	.
*	*	*	*	*lig	*Xij	*	*
1En	Sab-	.	.	1g	Sab-	.	.
!	!	!LO:TX:t=P:problem=kreska pseudotaktowa	!	!	!	!	!
.	.	2c\	.	.	.	.	.
=23-	=23-	=23-	=23-	=23-	=23-	=23-	=23-
2D\	.	2d\	.	1f	.	2r	.
2D\	-ba-	2.A/	.	.	.	2.a\	Do-
*	*	*	*	*Xlig	*	*	*
!LO:TX:t=P:problem=kreska pseudotaktowa	!	!	!	!	!	!	!
1AA	-oth	.	.	1.e	.	.	.
*	*Xij	*	*	*	*	*	*
.	.	4B-/	.	.	.	4a\	-mi-
!	!	!	!	!	!	!LO:TX:t=P:problem=kreska pseudotaktowa	!
.	.	2.c\	.	.	.	2a\	-n(us)
=24-	=24-	=24-	=24-	=24-	=24-	=24-	=24-
0r	.	.	.	.	.	2g/	D(e-
.	.	4B-/	.	.	.	.	.
!	!	!LO:TX:t=P:problem=kreska pseudotaktowa	!	!	!	!	!
.	.	2A/	.	4d/	.	2f/	-us)
.	.	.	.	4c/	.	.	.
.	.	1G	.	2d\	.	1b-	Sab.-
.	.	.	.	2e\	.	.	.
=25-	=25-	=25-	=25-	=25-	=25-	=25-	=25-
!	!	!	!	!	!	!LO:TX:t=P:problem=kreska pseudotaktowa	!
2r	.	2.F/	.	0f	.	1a	.
2.D\	Do-	.	.	.	.	.	.
.	.	4G/	.	.	.	.	.
.	.	2.A/	.	.	.	2.a\	.
4D\	-mi-	.	.	.	.	.	.
!LO:TX:t=P:problem=kreska pseudotaktowa	!	!	!	!	!	!	!
2D\	-n(us)	.	.	.	.	.	.
.	.	4B-/	.	.	.	4g\	.
=26-	=26-	=26-	=26-	=26-	=26-	=26-	=26-
2C/	D(e-	2c/	.	2e\	.	2a\	.
2BB-/	-us)	2F/	.	1d	.	2.b-\	.
1E-X	Sab-	1G	.	.	.	.	.
.	.	.	.	.	.	4a\	.
!	!	!	!	!LO:TX:t=P:problem=♯above	!	!	!
.	.	.	.	2c#X\	.	1g\	.
=27-	=27-	=27-	=27-	=27-	=27-	=27-	=27-
2.D\	.	1A	-ba-	1d	-ba-	.	.
.	.	.	.	.	.	2f#X/	-ba-
4D\	-ba-	.	.	.	.	.	.
0GGl;	-oth.	0Bnl;	-oth.	0dl;	-oth.	0gl;	-oth.
!	!	!LO:LB:g=original	!	!LO:LB:g=original	!	!LO:LB:g=original	!
=28||	=28||	=28||	=28||	=28||	=28||	=28||	=28||
*>B	*	*>B	*	*>B	*	*>B	*
*M2/1	*	*M2/1	*	*M2/1	*	*M2/1	*
*met(C|)	*	*met(C|)	*	*met(C|)	*	*met(C|)	*
!	!	!LO:TX:t=P:problem=kreska pseudotaktowa	!	!	!	!	!
!	!	!LO:TX:a:t=à 2.	!	!LO:TX:a:i:t=Pleni sunt Caeli \nTacet	!	!LO:TX:a:i:t=Pleni sunt Caeli \nTacet.	!
1G	Ple-	1rg	.	0ryy	.	0ryy	.
2G\	-ni	1d	Ple-	.	.	.	.
1G\	sunt	.	.	.	.	.	.
=29-	=29-	=29-	=29-	=29-	=29-	=29-	=29-
.	.	2d\	-ni	0ryy	.	0ryy	.
!LO:TX:t=P:problem=kreska pseudotaktowa	!	!	!	!	!	!	!
2D\	.	1d	sunt	.	.	.	.
1.F	cae-	.	.	.	.	.	.
!	!	!LO:TX:t=P:problem=kreska pseudotaktowa	!	!	!	!	!
.	.	2A/	.	.	.	.	.
=30-	=30-	=30-	=30-	=30-	=30-	=30-	=30-
.	.	1.c	cae-	0ryy	.	0ryy	.
4E\	.	.	.	.	.	.	.
4D\	.	.	.	.	.	.	.
2C/	.	.	.	.	.	.	.
!LO:TX:t=P:problem=kreska pseudotaktowa	!	!	!	!	!	!	!
2D/	.	4B-/	.	.	.	.	.
!	!	!LO:TX:t=P:problem=kreska pseudotaktowa	!	!	!	!	!
.	.	4A/	.	.	.	.	.
=31-	=31-	=31-	=31-	=31-	=31-	=31-	=31-
4GG/	.	1B-	.	0ryy	.	0ryy	.
4AA/	.	.	.	.	.	.	.
4BB-/	.	.	.	.	.	.	.
4C/	.	.	.	.	.	.	.
4D\	.	2.A/	.	.	.	.	.
4E\	.	.	.	.	.	.	.
1F\	.	.	.	.	.	.	.
.	.	4B-/	.	.	.	.	.
=32-	=32-	=32-	=32-	=32-	=32-	=32-	=32-
.	.	2c\	.	0ryy	.	0ryy	.
4E\	.	1d	.	.	.	.	.
*custos:E	*	*	*	*	*	*	*
!LO:TX:t=P:problem=kreska pseudotaktowa	!	!	!	!	!	!	!
4D\	.	.	.	.	.	.	.
!LO:LB:g=original	!	!	!	!	!	!	!
1E	.	.	.	.	.	.	.
!	!	!LO:TX:t=P:problem=kreska pseudotaktowa	!	!	!	!	!
.	.	2c\	.	.	.	.	.
=33-	=33-	=33-	=33-	=33-	=33-	=33-	=33-
!LO:TX:t=P:problem=kreska pseudotaktowa	!	!	!	!	!	!	!
1D	-li	2B-/	.	0ryy	.	0ryy	.
.	.	2.A/	.	.	.	.	.
2r	.	.	.	.	.	.	.
.	.	4G/	.	.	.	.	.
1D\	et	2B-/	.	.	.	.	.
=34-	=34-	=34-	=34-	=34-	=34-	=34-	=34-
.	.	2.A/	.	0ryy	.	0ryy	.
!LO:TX:t=P:problem=kreska pseudotaktowa	!	!	!	!	!	!	!
2D/	ter-	.	.	.	.	.	.
.	.	4B-/	.	.	.	.	.
2C/	.	2c\	.	.	.	.	.
2BB-/	-ra	1d\	.	.	.	.	.
=35-	=35-	=35-	=35-	=35-	=35-	=35-	=35-
2.E\	glo-	.	.	0ryy	.	0ryy	.
.	.	2c\	.	.	.	.	.
4E\	-ri-	.	.	.	.	.	.
!	!	!LO:TX:t=P:problem=kreska pseudotaktowa	!	!	!	!	!
2.D/	-a	1d	-li	.	.	.	.
!LO:TX:t=P:problem=kreska pseudotaktowa	!	!	!	!	!	!	!
4C/	.	.	.	.	.	.	.
=36-	=36-	=36-	=36-	=36-	=36-	=36-	=36-
4D\	.	2rA	.	0ryy	.	0ryy	.
4E\	.	.	.	.	.	.	.
1F	.	1A	et	.	.	.	.
4E\	.	2A/	ter-	.	.	.	.
4D\	.	.	.	.	.	.	.
=37-	=37-	=37-	=37-	=37-	=37-	=37-	=37-
2E\	tu-	2G/	.	0ryy	.	0ryy	.
!LO:TX:t=P:problem=kreska pseudotaktowa	!	!	!	!	!	!	!
2D\	.	2F/	.	.	.	.	.
2GG,/	-a	1B-	-ra	.	.	.	.
1D\	glo-	.	.	.	.	.	.
=38-	=38-	=38-	=38-	=38-	=38-	=38-	=38-
.	.	2.A/	glo-	0ryy	.	0ryy	.
2C/	.	.	.	.	.	.	.
.	.	4G/	.	.	.	.	.
2.F\	.	4A/	.	.	.	.	.
.	.	4B-/	.	.	.	.	.
.	.	1c\	-ri-	.	.	.	.
4E\	.	.	.	.	.	.	.
=39-	=39-	=39-	=39-	=39-	=39-	=39-	=39-
2D/	.	.	.	0ryy	.	0ryy	.
4C/	.	1B-	-a	.	.	.	.
!LO:TX:t=P:problem=kreska pseudotaktowa	!	!	!	!	!	!	!
4BB-/	.	.	.	.	.	.	.
1C	.	.	.	.	.	.	.
!	!	!LO:TX:t=P:problem=kreska pseudotaktowa	!	!	!	!	!
.	.	2A/	tu-	.	.	.	.
=40-	=40-	=40-	=40-	=40-	=40-	=40-	=40-
!LO:TX:t=P:problem=kreska pseudotaktowa	!	!	!	!	!	!	!
1BB-	.	2B-,/	-a	0ryy	.	0ryy	.
.	.	1F	glo-	.	.	.	.
1BB-	-ri-	.	.	.	.	.	.
.	.	2F/	-ri-	.	.	.	.
=41-	=41-	=41-	=41-	=41-	=41-	=41-	=41-
2BB-/	-a	2G/	-a	0ryy	.	0ryy	.
2C/	.	1A	.	.	.	.	.
!LO:TX:t=P:problem=kreska pseudotaktowa	!	!	!	!	!	!	!
1D	tu-	.	.	.	.	.	.
.	.	1B-/	.	.	.	.	.
=42-	=42-	=42-	=42-	=42-	=42-	=42-	=42-
2GG,/	-a	.	.	0ryy	.	0ryy	.
1G	glo-	4A/	.	.	.	.	.
.	.	4G/	.	.	.	.	.
*	*	*custos:G	*	*	*	*	*
!	!	!LO:TX:t=P:problem=kreska pseudotaktowa	!	!	!	!	!
.	.	1A	.	.	.	.	.
2F\	.	.	.	.	.	.	.
!	!	!LO:LB:g=original	!	!	!	!	!
=43-	=43-	=43-	=43-	=43-	=43-	=43-	=43-
2En\	-ri-	2G/	tu-	0ryy	.	0ryy	.
2C/	-a	2.c/	.	.	.	.	.
2.F\	.	.	.	.	.	.	.
.	.	4B-/	.	.	.	.	.
.	.	4A/	.	.	.	.	.
4E\	.	4G/	.	.	.	.	.
=44-	=44-	=44-	=44-	=44-	=44-	=44-	=44-
4D/	.	2F/	.	0ryy	.	0ryy	.
4C/	.	.	.	.	.	.	.
4BB-/	.	1B-	.	.	.	.	.
!LO:TX:t=P:problem=kreska pseudotaktowa	!	!	!	!	!	!	!
4AA/	.	.	.	.	.	.	.
2GG/	.	.	.	.	.	.	.
1G\	tu-	4A/	.	.	.	.	.
.	.	4G/	.	.	.	.	.
=45-	=45-	=45-	=45-	=45-	=45-	=45-	=45-
!	!	!LO:TX:t=P:problem=kreska pseudotaktowa	!	!	!	!	!
.	.	1A	-â.	0ryy	.	0ryy	.
2F\	.	.	.	.	.	.	.
*custos:D	*	*	*	*	*	*	*
!LO:TX:t=P:problem=kreska pseudotaktowa	!	!	!	!	!	!	!
1G	-a	2rG	.	.	.	.	.
.	.	2G/	glo-	.	.	.	.
!LO:LB:g=original	!	!	!	!	!	!	!
=46-	=46-	=46-	=46-	=46-	=46-	=46-	=46-
2r	.	2B-/	.	0ryy	.	0ryy	.
2D\	glo-	2.A/	.	.	.	.	.
2F\	.	.	.	.	.	.	.
.	.	4B-/	.	.	.	.	.
!LO:TX:t=P::problem=kreska pseudotaktowa&colon;między nutą a kropką	!	!LO:TX:t=P:problem=kreska pseudotaktowa	!	!	!	!	!
2.E\	.	2c/	-ri-	.	.	.	.
=47-	=47-	=47-	=47-	=47-	=47-	=47-	=47-
.	.	4G/	-a	0ryy	.	0ryy	.
4F\	.	4A/	.	.	.	.	.
1G	.	4B-/	.	.	.	.	.
.	.	4c/	.	.	.	.	.
.	.	4d\	.	.	.	.	.
.	.	4e\	.	.	.	.	.
!LO:TX:t=P:problem=kreska pseudotaktowa	!	!	!	!	!	!	!
2D\	-ri-	2.f\	tu-	.	.	.	.
=48-	=48-	=48-	=48-	=48-	=48-	=48-	=48-
2.F\	-â	.	.	0ryy	.	0ryy	.
.	.	4e\	.	.	.	.	.
.	.	4d\	.	.	.	.	.
!	!	!LO:TX:t=P:problem=kreska pseudotaktowa	!	!	!	!	!
4E\	.	4c\	.	.	.	.	.
2D/	.	2B-/	.	.	.	.	.
2.C/	tu-	1A/	.	.	.	.	.
=49-	=49-	=49-	=49-	=49-	=49-	=49-	=49-
.	.	.	.	0ryy	.	0ryy	.
4BB-/	.	.	.	.	.	.	.
4AA/	.	1G	.	.	.	.	.
4GG/	.	.	.	.	.	.	.
1AA	.	.	.	.	.	.	.
.	.	2F#X/	.	.	.	.	.
=50-	=50-	=50-	=50-	=50-	=50-	=50-	=50-
0GGl;	-â	0Gl;	-a.	0ryy	.	0ryy	.
=51||-	=51||-	=51||-	=51||-	=51||-	=51||-	=51||-	=51||-
*>C	*	*>C	*	*>C	*	*>C	*
*M2/1	*	*M2/1	*	*M2/1	*	*M2/1	*
*met(C|)	*	*met(C|)	*	*met(C|)	*	*met(C|)	*
!	!	!	!	!LO:TX:a:t=1.	!	!	!
!LO:TX:t=P:problem=przed metrum inicjał O	!	!LO:TX:t=P:problem=przed metrum inicjał O	!	!LO:TX:t=P:problem=przed metrum inicjał O	!	!LO:TX:t=P:problem=przed metrum inicjał O	!
0r	.	00r	.	1rg	.	1.a	O-
.	.	.	.	1d	O-	.	.
!	!	!	!	!	!	!LO:TX:t=P:problem=kreska pseudotaktowa	!
.	.	.	.	.	.	2b-\	.
=52-	=52-	=52-	=52-	=52-	=52-	=52-	=52-
!LO:TX:t=P:problem=kreska pseudotaktowa	!	!	!	!	!	!	!
1r	.	.	.	2e\	-san-	2g\	-san-
!	!	!	!	!LO:TX:t=P:problem=kreska pseudotaktowa	!	!	!
.	.	.	.	2c\	.	1a	.
1D	O-	.	.	1d	-na	.	.
.	.	.	.	.	.	2fny/	.
=53-	=53-	=53-	=53-	=53-	=53-	=53-	=53-
!LO:TX:t=P:♭above:problem	!	!LO:TX:t=P:problem=kreska pseudotaktowa	!	!	!	!	!
2E-X\	-san-	1r	.	2B-/	in	2g/	.
2C/	.	.	.	2c\	ex-	2e/	.
!	!	!	!	!	!	!LO:TX:t=P:problem=kreska pseudotaktowa	!
!	!	!	!	!	!	!LO:SIC:v:l:s=-na	!
1D	-na	1A	O-	1F	-cel-	0d	-nna
=54-	=54-	=54-	=54-	=54-	=54-	=54-	=54-
!	!	!	!	!LO:TX:t=P:problem=kreska pseudotaktowa	!	!	!
2GG/	in	2B-/	-san-	1G	-ſis	.	.
1G	ex-	2G/	.	.	.	.	.
!	!	!	!	!LO:TX:t=P:problem=kreska pseudotaktowa	!	!	!
.	.	1A	-na	1rg	.	2r	.
*	*	*	*	*	*	*	*ij
4F\	.	.	.	.	.	2a\	O-
!LO:TX:t=P:problem=kreska pseudotaktowa	!	!	!	!	!	!	!
4Eny\	.	.	.	.	.	.	.
=55-	=55-	=55-	=55-	=55-	=55-	=55-	=55-
*	*	*	*	*	*ij	*	*
!	!	!LO:TX:t=P:problem=uszkodzony papier	!	!	!	!	!
1D	-cel-	2ryy	.	1d	O-	2.a\	-san-
.	.	2Fny/	in	.	.	.	.
.	.	.	.	.	.	4b-\	.
1C	.	2.G/	ex-	2e\	-san-	1cc	.
!	!	!	!	!LO:TX:t=P:problem=kreska pseudotaktowa	!	!	!
.	.	.	.	2c\	.	.	.
.	.	4A/	.	.	.	.	.
=56-	=56-	=56-	=56-	=56-	=56-	=56-	=56-
!	!	!	!	!	!	!LO:TX:t=P:problem=kreska pseudotaktowa	!
2.BB-/	.	2B-/	-cel-	2.d\	-na	1f	-na
*	*	*	*	*	*	*	*Xij
.	.	4A/	.	.	.	.	.
4C/	.	4G/	.	4e\	.	.	.
2D/	.	2F/	.	2f\	.	1rg	.
!	!	!	!	!LO:TX:t=P:problem=kreska pseudotaktowa	!	!	!
4C/	.	1G/	.	2d\	.	.	.
!LO:TX:t=P:problem=kreska pseudotaktowa	!	!	!	!	!	!	!
4BB-/	.	.	.	.	.	.	.
=57-	=57-	=57-	=57-	=57-	=57-	=57-	=57-
1AA	.	.	.	1c	in	1a	O-
!	!	!LO:TX:t=P:problem=♯above	!	!	!	!	!
.	.	2F#X/	.	.	.	.	.
!	!	!LO:TX:t=P:problem=kreska pseudotaktowa	!	!	!	!	!
2GG,/	-sis	1G	-sis.	1B-	ex-	2b-\	-san-
1G\	in	.	.	.	.	2g\	.
=58-	=58-	=58-	=58-	=58-	=58-	=58-	=58-
.	.	2rA	.	2A/	-cel-	1a	-na
*	*	*	*ij	*	*	*	*
2F\	ex-	2A/	O-	1d	.	.	.
2G\	-cel-	2B-/	-san-	.	.	2d/	in
!	!	!	!	!LO:TX:t=P:problem=kreska pseudotaktowa	!	!	!
2E\	.	2G/	.	2c\	.	1g\	ex-
=59-	=59-	=59-	=59-	=59-	=59-	=59-	=59-
1D	.	1A	-na	2d,\	-ſis	.	.
*	*	*	*	*	*Xij	*	*
!	!	!	!	!	!	!LO:TX:t=P:problem=kreska pseudotaktowa	!
.	.	.	.	2d\	O-	2f/	.
!LO:TX:t=P:problem=kreska pseudotaktowa	!	!	!	!	!	!	!
1GG	-ſis.	2.G/	in	2B-/	-san-	1.g	-cel-
.	.	.	.	2.G/	-na-	.	.
*	*	*custos:B	*	*	*	*	*
!	!	!LO:TX:t=P:problem=kreska pseudotaktowa	!	!	!	!	!
.	.	4A/	.	.	.	.	.
!	!	!LO:LB:g=original	!	!	!	!	!
=60-	=60-	=60-	=60-	=60-	=60-	=60-	=60-
00r	.	4B-/	.	.	.	.	.
.	.	4c/	.	4A/	.	.	.
.	.	2d\	.	4B-/	.	2f/	.
*	*	*	*	*custos:d	*	*	*
!	!	!	!	!LO:TX:t=P:problem=kreska pseudotaktowa	!	!	!
.	.	.	.	4c/	.	.	.
!	!	!	!	!LO:LB:g=original	!	!	!
.	.	1B-	ex-	4d\	-in	2.b-\	.
.	.	.	.	4e\	.	.	.
.	.	.	.	2f\	ex-	.	.
.	.	.	.	.	.	4a\	.
=61-	=61-	=61-	=61-	=61-	=61-	=61-	=61-
.	.	2c\	-cel-	2e\	.	2g\	.
.	.	2d\	.	1d	-cel-	2f/	.
*	*	*	*	*	*	*custos:d	*
!	!	!LO:TX:t=P:problem=kreska pseudotaktowa	!	!	!	!LO:TX:t=P:problem=kreska pseudotaktowa	!
.	.	0.A	-sis.	.	.	1e	.
*	*	*	*Xij	*	*	*	*
!	!	!	!	!LO:TX:t=P:problem=kreska pseudotaktowa	!	!	!
.	.	.	.	2c\	.	.	.
!	!	!	!	!	!	!LO:LB:g=original	!
=62-	=62-	=62-	=62-	=62-	=62-	=62-	=62-
!	!	!	!	!LO:TX:t=P:problem=kreska pseudotaktowa	!	!	!
1.D	O-	.	.	1d,	-sis	2d,/	-sis
.	.	.	.	.	.	1a	in
*	*	*	*	*	*ij	*	*
.	.	.	.	1d	O-	.	.
!	!	!	!	!	!	!LO:TX:t=P:problem=kreska pseudotaktowa	!
2D\	-ſan-	.	.	.	.	2a\	ex-
=63-	=63-	=63-	=63-	=63-	=63-	=63-	=63-
2G\	-na	2rA	.	2d\	-san-	2b-\	-cel-
2.F\	in	1A	O-	1f	.	2.a\	.
4E\	.	.	.	.	.	4g\	.
!	!	!	!	!LO:TX:t=P:problem=kreska pseudotaktowa	!	!LO:TX:t=P:problem=kreska pseudotaktowa	!
4D/	.	2A/	-ſan-	2f\	-na	2a\	.
!LO:TX:t=P:problem=kreska pseudotaktowa	!	!	!	!	!	!	!
4C/	.	.	.	.	.	.	.
!LO:LB:g=original	!	!	!	!	!	!	!
=64-	=64-	=64-	=64-	=64-	=64-	=64-	=64-
1BB-	ex-	1d	-na	1f	in	1b-	.
1C	-cel-	1c	in	1e	.	2a\	.
.	.	.	.	.	.	1g\	.
=65-	=65-	=65-	=65-	=65-	=65-	=65-	=65-
1D	.	1.A	ex-	1.d	ex-	.	.
.	.	.	.	.	.	2f/	.
!LO:TX:t=P:problem=kreska pseudotaktowa	!	!	!	!	!	!	!
0AA	-sis.	.	.	.	.	0e	.
.	.	2A/	-cel-	4c/	.	.	.
.	.	.	.	4B-/	.	.	.
=66-	=66-	=66-	=66-	=66-	=66-	=66-	=66-
!	!	!LO:TX:t=P:problem=kreska pseudotaktowa	!	!	!	!	!
.	.	1A	-ſis	1c	-cel-	.	.
!	!	!	!	!LO:TX:t=P:problem=kreska pseudotaktowa	!	!LO:TX:t=P:problem=kreska pseudotaktowa	!
1D	O-	2rA	.	0.d	-sis	1d	-sis.
*	*	*	*ij	*	*Xij	*	*
.	.	1A/	O-	.	.	.	.
=67-	=67-	=67-	=67-	=67-	=67-	=67-	=67-
!	!	!	!	!	!	!LO:TX:t=P:problem=kreska pseudotaktowa	!
1D	-ſan-	.	.	.	.	0r	.
.	.	2Fny/	-ſan-	.	.	.	.
2BB-/	-na	2G/	.	.	.	.	.
2C/	.	1A/	-na	.	.	.	.
=68-	=68-	=68-	=68-	=68-	=68-	=68-	=68-
!LO:N:vis=0.	!	!	!	!	!	!	!
1.D	.	.	.	0r	.	1a	O-
.	.	2A/	in	.	.	.	.
.	.	2B-/	ex-	.	.	2f/	-san-
4C/	.	1G/	-cel-	.	.	2g\	.
!LO:TX:t=P:problem=kreska pseudotaktowa	!	!	!	!	!	!	!
4BB-/	.	.	.	.	.	.	.
=69-	=69-	=69-	=69-	=69-	=69-	=69-	=69-
!	!	!	!	!LO:TX:t=P:problem=kreska pseudotaktowa	!	!	!
1AA	.	.	.	1r	.	1a	-na
!	!	!LO:TX:t=P:problem=kreska pseudotaktowa	!	!	!	!	!
.	.	2F/	.	.	.	.	.
2GG/	in	1G	-ſis	1d	O-	1.b-	in
*	*	*	*Xij	*	*	*	*
1G\	ex-	.	.	.	.	.	.
=70-	=70-	=70-	=70-	=70-	=70-	=70-	=70-
.	.	2rA	.	2B-/	-san-	.	.
4F\	.	2G/	in	2c/	.	4a\	ex-
!	!	!	!	!	!	!LO:TX:t=P:problem=kreska pseudotaktowa	!
4E\	.	.	.	.	.	4g\	.
*lig	*	*	*	*	*	*	*
1D	.	2.A/	ex-	1d	-na	1f	-cel.-
.	.	4B-/	.	.	.	.	.
=71-	=71-	=71-	=71-	=71-	=71-	=71-	=71-
!	!	!	!	!LO:TX:t=P:problem=kreska pseudotaktowa	!	!	!
1C	.	1c	-cel-	1e	in	1g	.
*Xlig	*	*	*	*	*	*	*
!	!	!LO:TX:t=P:problem=kreska pseudotaktowa	!	!	!	!	!
1D	-cel-	1A	-ſis	2d\	ex-	2f/	.
.	.	.	.	1d\	-cel-	2a\	.
=72-	=72-	=72-	=72-	=72-	=72-	=72-	=72-
2E\	.	1r	.	.	.	2f/	.
1G	.	.	.	4c/	.	2g/	.
.	.	.	.	4B-/	.	.	.
!	!	!	!	!LO:TX:t=P:problem=kreska pseudotaktowa	!	!LO:TX:t=P:problem=kreska pseudotaktowa	!
.	.	2r	.	1A	-ſis	1a	.
!LO:TX:t=P:problem=kreska pseudotaktowa	!	!	!	!	!	!	!
2F\	.	2d\	O-	.	.	.	.
=73-	=73-	=73-	=73-	=73-	=73-	=73-	=73-
2G\	.	2B-/	-ſan-	2rA	.	2d/	-sis
!	!	!LO:TX:t=P:problem=kreska pseudotaktowa	!	!	!	!	!
2E\	.	2c\	-na	2G/	O-	1g	in
!	!	!	!	!LO:TX:t=P:problem=kreska pseudotaktowa	!	!	!
1D	.	2.d\	in	1A	-san-	.	.
!	!	!	!	!	!	!LO:TX:t=P:problem=kreska pseudotaktowa	!
.	.	.	.	.	.	2f/	ex-
.	.	4c/	.	.	.	.	.
=74-	=74-	=74-	=74-	=74-	=74-	=74-	=74-
2GG,/	-sis	4B-/	.	4G/	-na-	2.g\	-cel-
.	.	4A/	.	4A/	.	.	.
1G	in	1B-	ex-	4B-/	.	.	.
.	.	.	.	4c/	.	4a\	.
.	.	.	.	4d\	.	2b-\	.
.	.	.	.	4e\	.	.	.
!LO:TX:t=P:problem=kreska pseudotaktowa	!	!LO:TX:t=P:problem=kreska pseudotaktowa	!	!LO:TX:t=P:problem=kreska pseudotaktowa	!	!	!
2F\	ex-	2c/	.	2f\	-in	2.a\	.
=75-	=75-	=75-	=75-	=75-	=75-	=75-	=75-
2G\	-cel-	2B-/	-cel-	2d\	ex-	.	.
.	.	.	.	.	.	4g/	.
2E-X\	.	2G/	.	2c\	.	1g	.
1D	.	1A	.	1d	-cel-	.	.
.	.	.	.	.	.	2f#X/	.
=76-	=76-	=76-	=76-	=76-	=76-	=76-	=76-
!	!	!LO:TX:b:i:t=Benedictus \nVenit Vertat	!	!	!	!	!
0GGl;	-sis.	0Bnl;	-sis.	0dl;	-sis.	0gl;	-sis.
!	!	!LO:PB:g=original	!	!LO:PB:g=original	!	!LO:LB:g=original	!
=77||	=77||	=77||	=77||	=77||	=77||	=77||	=77||
*>D	*	*>D	*	*>D	*	*>D	*
*M2/1	*	*M2/1	*	*M2/1	*	*M2/1	*
*met(C|)	*	*met(C|)	*	*met(C|)	*	*met(C|)	*
!	!	!LO:TX:a:t=à 3.	!	!LO:TX:a:t=à 3.	!	!	!
!LO:TX:t=P:problem=przed metrum inicjał B	!	!LO:TX:t=P:problem=przed metrum inicjał B	!	!LO:TX:t=P:problem=przed metrum inicjał B	!	!LO:TX:b:i:t=Benedictus Tacet.	!
00r	.	00r	.	1.A	Be-	0ryy	.
!	!	!	!	!LO:TX:t=P:problem=kreska pseudotaktowa	!	!	!
.	.	.	.	2A/	-ne-	.	.
=78-	=78-	=78-	=78-	=78-	=78-	=78-	=78-
.	.	.	.	2B-/	-di-	0ryy	.
.	.	.	.	2A/	.	.	.
.	.	.	.	1d	-ctus	.	.
=79-	=79-	=79-	=79-	=79-	=79-	=79-	=79-
!LO:TX:t=P:problem=kreska pseudotaktowa	!	!	!	!	!	!	!
0r	.	1.A	Be-	2.c\	qui	0ryy	.
.	.	.	.	4d\	.	.	.
.	.	.	.	2e\	ve-	.	.
!	!	!LO:TX:t=P:problem=kreska pseudotaktowa	!	!	!	!	!
.	.	2A/	-ne-	2.f\	.	.	.
=80-	=80-	=80-	=80-	=80-	=80-	=80-	=80-
1.D	Be-	2B-/	-di-	.	.	0ryy	.
.	.	.	.	4e\	.	.	.
.	.	2A/	-ctus	4d\	.	.	.
!	!	!	!	!LO:TX:t=P:problem=kreska pseudotaktowa	!	!	!
.	.	.	.	4c\	.	.	.
.	.	1d	qui	2B-/	.	.	.
2D\	-ne-	.	.	2A/	.	.	.
=81-	=81-	=81-	=81-	=81-	=81-	=81-	=81-
2E\	-di-	2c\	.	2G/	.	0ryy	.
!LO:TX:t=P:problem=kreska pseudotaktowa	!	!	!	!	!	!	!
2D\	-ctus	1d	ve-	2A/	.	.	.
1G	qui	.	.	1B-	.	.	.
.	.	4c/	.	.	.	.	.
!	!	!LO:TX:t=P:problem=kreska pseudotaktowa	!	!	!	!	!
.	.	4B-/	.	.	.	.	.
=82-	=82-	=82-	=82-	=82-	=82-	=82-	=82-
!	!	!	!	!LO:TX:t=P:problem=kreska pseudotaktowa	!	!	!
2.F\	ve-	1A	.	1c	-nit	0ryy	.
*custos:D	*	*	*	*	*	*	*
!LO:TX:t=P:problem=kreska pseudotaktowa	!	!	!	!	!	!	!
4E\	.	.	.	.	.	.	.
!LO:LB:g=original	!	!LO:TX:t=P:problem=kreska pseudotaktowa	!	!	!	!	!
4D/	.	1A	-nit	1rc	.	.	.
4C/	.	.	.	.	.	.	.
2.D/	.	.	.	.	.	.	.
=83-	=83-	=83-	=83-	=83-	=83-	=83-	=83-
.	.	2rA	.	1.d	Be-	0ryy	.
4C/	.	.	.	.	.	.	.
4BB-/	.	2A/	Be-	.	.	.	.
!LO:TX:t=P:problem=kreska pseudotaktowa	!	!	!	!	!	!	!
4AA/	.	.	.	.	.	.	.
2GG/	-nit	2B-/	-ne-	.	.	.	.
*	*ij	*	*	*	*	*	*
2D/	Be-	2A/	.	2d\	-ne-	.	.
=84-	=84-	=84-	=84-	=84-	=84-	=84-	=84-
2C/	.	2c\	-di-	2e\	-di-	0ryy	.
!LO:TX:t=P:problem=kreska pseudotaktowa	!	!	!	!LO:TX:t=P:problem=kreska pseudotaktowa	!	!	!
2BB-/	-ne-	1d	.	2d\	-ctus	.	.
!LO:TX:t=P:♭above:problem	!	!	!	!	!	!	!
1E-X	-dic-	.	.	1g	qui	.	.
!	!	!LO:TX:t=P:problem=kreska pseudotaktowa	!	!	!	!	!
.	.	2c\	-ctus	.	.	.	.
=85-	=85-	=85-	=85-	=85-	=85-	=85-	=85-
2D\	-tus	2.d\	qui	2.f\	ve-	0ryy	.
4BB-/	qui	.	.	.	.	.	.
4C/	.	4c/	.	4e\	.	.	.
4D\	.	2B-/	Ve-	2d\	.	.	.
4E-\	.	.	.	.	.	.	.
!LO:TX:t=P:problem=kreska pseudotaktowa	!	!	!	!LO:TX:t=P:problem=kreska pseudotaktowa	!	!	!
2F\	ve-	1A/	.	2c\	.	.	.
=86-	=86-	=86-	=86-	=86-	=86-	=86-	=86-
2G\	.	.	.	2B-/	.	0ryy	.
2E-\	.	1G	.	4A/	.	.	.
.	.	.	.	4G/	.	.	.
1D	.	.	.	1A	.	.	.
.	.	2F/	.	.	.	.	.
=87-	=87-	=87-	=87-	=87-	=87-	=87-	=87-
!LO:TX:t=P:problem=kreska pseudotaktowa	!	!LO:TX:t=P:problem=kreska pseudotaktowa	!	!LO:TX:t=P:problem=kreska pseudotaktowa	!	!	!
1GG,	-nit	1G	-nit	0G	-nit	0ryy	.
*	*Xij	*	*	*	*	*	*
1G	in	2r	.	.	.	.	.
.	.	1d\	in	.	.	.	.
=88-	=88-	=88-	=88-	=88-	=88-	=88-	=88-
!	!	!	!	!LO:TX:t=P:problem=kreska pseudotaktowa	!	!	!
2F\	No-	.	.	00r	.	0ryy	.
!	!	!LO:TX:t=P:problem=kreska pseudotaktowa	!	!	!	!	!
2A\	-mi-	2c\	No-	.	.	.	.
2.G\	-ne	2e\	-mi-	.	.	.	.
.	.	2.d\	-ne	.	.	.	.
4F\	.	.	.	.	.	.	.
=89-	=89-	=89-	=89-	=89-	=89-	=89-	=89-
2D\	.	.	.	.	.	0ryy	.
.	.	4c/	Do-	.	.	.	.
2.F\	Do-	4A/	.	.	.	.	.
.	.	4B-/	.	.	.	.	.
.	.	2c\	.	.	.	.	.
4Eny\	.	.	.	.	.	.	.
4D/	.	2.d\	.	.	.	.	.
!LO:TX:t=P:problem=kreska pseudotaktowa	!	!	!	!	!	!	!
4C/	.	.	.	.	.	.	.
=90-	=90-	=90-	=90-	=90-	=90-	=90-	=90-
1BB-	.	.	.	1d	in	0ryy	.
.	.	4c/	.	.	.	.	.
.	.	1B-	.	.	.	.	.
2.C/	.	.	.	2c\	No-	.	.
!	!	!	!	!LO:TX:t=P:problem=kreska pseudotaktowa	!	!	!
.	.	2A/	-mi-	2e\	-mi-	.	.
4C/	-mi-	.	.	.	.	.	.
=91-	=91-	=91-	=91-	=91-	=91-	=91-	=91-
!LO:TX:t=P:problem=kreska pseudotaktowa	!	!LO:TX:t=P:problem=kreska pseudotaktowa	!	!	!	!	!
1BB-	-ni	0B-	-ni	1.d	-ne	0ryy	.
!LO:TX:t=P:problem=kreska pseudotaktowa	!	!	!	!	!	!	!
1rA	.	.	.	.	.	.	.
.	.	.	.	4c/	.	.	.
.	.	.	.	4B-/	.	.	.
=92-	=92-	=92-	=92-	=92-	=92-	=92-	=92-
1D	in	1rc	.	2.A/	.	0ryy	.
*	*	*	*	*custos:c	*	*	*
!	!	!	!	!LO:TX:t=P:problem=kreska pseudotaktowa	!	!	!
.	.	.	.	4B-/	.	.	.
!	!	!	!	!LO:LB:g=original	!	!	!
2C/	No-	2rA	.	4c/	.	.	.
.	.	.	.	4B-/	.	.	.
2E\	.	1G/	in	4A/	.	.	.
.	.	.	.	4G/	.	.	.
=93-	=93-	=93-	=93-	=93-	=93-	=93-	=93-
!LO:TX:t=P:problem=kreska pseudotaktowa	!	!	!	!	!	!	!
1D	-mi-	.	.	2.A/	Do-	0ryy	.
!	!	!LO:TX:t=P:problem=kreska pseudotaktowa	!	!	!	!	!
.	.	2F/	No-	.	.	.	.
.	.	.	.	4B-/	.	.	.
!	!	!LO:LB:g=original	!	!LO:TX:t=P:problem=kreska pseudotaktowa	!	!	!
2AA/	-ne	2A/	-mi-	1c	.	.	.
2C/	Do-	2.G/	-ne-	.	.	.	.
=94-	=94-	=94-	=94-	=94-	=94-	=94-	=94-
!	!	!	!	!LO:TX:t=P:problem=brak 1/1	!	!	!
2.GG/	.	.	.	1ryy	.	0ryy	.
.	.	4F/	.	.	.	.	.
.	.	1B-	.	.	.	.	.
4AA/	.	.	.	.	.	.	.
4BB-/	.	.	.	1d	.	.	.
(4C/	.	.	.	.	.	.	.
4D/	.	1A/	-Do-	.	.	.	.
4E/)	.	.	.	.	.	.	.
=95-	=95-	=95-	=95-	=95-	=95-	=95-	=95-
2F\	.	.	.	2c\	.	0ryy	.
!	!	!LO:TX:t=P:problem=kreska pseudotaktowa	!	!LO:TX:t=P:problem=kreska pseudotaktowa	!	!	!
2C/	-mi-	2c/	.	2e\	.	.	.
!LO:TX:t=P:problem=kreska pseudotaktowa	!	!	!	!	!	!	!
1D,	-ni	2B-/	.	2.d\	.	.	.
.	.	2A/	-mi-	.	.	.	.
.	.	.	.	4e\	.	.	.
!LO:LB:g=original	!	!	!	!	!	!	!
=96-	=96-	=96-	=96-	=96-	=96-	=96-	=96-
!LO:TX:t=P:problem=kreska pseudotaktowa	!	!LO:TX:t=P:problem=kreska pseudotaktowa	!	!	!	!	!
1rA	.	1d	-ni	2.f\	.	0ryy	.
!	!	!	!	!LO:TX:t=P:problem=kreska pseudotaktowa	!	!	!
.	.	.	.	4e\	.	.	.
1G	in	2r	.	2d\	.	.	.
.	.	1d\	in	4c/	-mi-	.	.
.	.	.	.	4B-/	.	.	.
=97-	=97-	=97-	=97-	=97-	=97-	=97-	=97-
!	!	!	!	!LO:TX:t=P:problem=kreska pseudotaktowa	!	!	!
2F\	No-	.	.	1A	-ni	0ryy	.
!LO:TX:t=P:problem=kreska pseudotaktowa	!	!	!	!	!	!	!
2A\	-mi-	2c\	No-	.	.	.	.
2.G\	-ne	2e\	-mi-	0rA	.	.	.
.	.	2.d\	-ne	.	.	.	.
4F\	.	.	.	.	.	.	.
=98-	=98-	=98-	=98-	=98-	=98-	=98-	=98-
2D\	Do-	.	.	.	.	0ryy	.
.	.	4c/	.	.	.	.	.
2F\	.	4A/	.	.	.	.	.
!	!	!LO:TX:t=P:problem=kreska pseudotaktowa	!	!	!	!	!
.	.	4B-/	.	.	.	.	.
!LO:TX:t=P:problem=kreska pseudotaktowa	!	!	!	!	!	!	!
1En	.	4c/	.	2rA	.	.	.
.	.	4B-/	.	.	.	.	.
.	.	4A/	.	1G/	Do-	.	.
.	.	4G/	.	.	.	.	.
=99-	=99-	=99-	=99-	=99-	=99-	=99-	=99-
!	!	!LO:TX:t=P:problem=kreska pseudotaktowa	!	!	!	!	!
2.D/	.	1A	.	.	.	0ryy	.
!	!	!	!	!LO:TX:t=P:problem=kreska pseudotaktowa	!	!	!
.	.	.	.	2F/	.	.	.
4C/	.	.	.	.	.	.	.
2AA/	.	1rc	.	2A/	.	.	.
2C/	-mi-	.	.	2.G/	-mi-	.	.
=100-	=100-	=100-	=100-	=100-	=100-	=100-	=100-
!LO:TX:t=P:problem=kreska pseudotaktowa	!	!	!	!	!	!	!
1GG	-ni	2rA	.	.	.	0ryy	.
.	.	.	.	4A/	.	.	.
.	.	1G	in	4B-/	.	.	.
.	.	.	.	4c/	.	.	.
!	!	!	!	!LO:TX:t=P:problem=kreska pseudotaktowa	!	!	!
2r	.	.	.	1d	-ni	.	.
1D\	in	2F/	No-	.	.	.	.
=101-	=101-	=101-	=101-	=101-	=101-	=101-	=101-
.	.	1A	-mi-	1rg	.	0ryy	.
!LO:TX:t=P:problem=kreska pseudotaktowa	!	!	!	!	!	!	!
2C/	.	.	.	.	.	.	.
2E\	No-	2G/	-ne	2r	.	.	.
2.D\	.	2F/	.	1d\	in-	.	.
=102-	=102-	=102-	=102-	=102-	=102-	=102-	=102-
.	.	2A/	D(o-	.	.	0ryy	.
4C/	.	.	.	.	.	.	.
!	!	!	!	!LO:TX:t=P:problem=kreska pseudotaktowa	!	!	!
4AA/	.	2A/	-mi)-	2c\	.	.	.
!LO:TX:t=P:problem=kreska pseudotaktowa	!	!	!	!	!	!	!
4BB-/	.	.	.	.	.	.	.
!	!	!LO:TX:t=P:problem=kreska pseudotaktowa	!	!	!	!	!
2C/	.	1G	-ni	2e\	-No-	.	.
2.GG/	.	.	.	2.d\	.	.	.
=103-	=103-	=103-	=103-	=103-	=103-	=103-	=103-
.	.	2r	.	.	.	0ryy	.
4AA/	.	.	.	4c/	.	.	.
4BB-/	.	1d	in	2B-/	-mi-	.	.
!LO:TX:t=P:problem=kreska pseudotaktowa	!	!	!	!	!	!	!
4C/	.	.	.	.	.	.	.
!	!	!	!	!LO:TX:t=P:problem=kreska pseudotaktowa	!	!	!
2D/	.	.	.	1A	-ne	.	.
2AA/	.	2c\	No-	.	.	.	.
=104-	=104-	=104-	=104-	=104-	=104-	=104-	=104-
2C/	-mi-	2e\	-mi-	2rA	.	0ryy	.
2GG/	-ne	2.d\	-ne	1G	in	.	.
!LO:TX:t=P:problem=kreska pseudotaktowa	!	!	!	!	!	!	!
1D	Do-	.	.	.	.	.	.
.	.	4c/	.	.	.	.	.
.	.	4A/	.	2F/	.	.	.
!	!	!LO:TX:t=P:problem=kreska pseudotaktowa	!	!	!	!	!
.	.	4B-/	.	.	.	.	.
=105-	=105-	=105-	=105-	=105-	=105-	=105-	=105-
2C/	.	4c/	Do-	2A/	No-	0ryy	.
.	.	4B-/	.	.	.	.	.
2E\	.	4A/	.	1G	.	.	.
.	.	4G/	.	.	.	.	.
2D\	.	2A/	.	.	.	.	.
!LO:TX:t=P:problem=kreska pseudotaktowa	!	!	!	!	!	!	!
2D\	-mi-	2.d\	.	2F/	.	.	.
=106-	=106-	=106-	=106-	=106-	=106-	=106-	=106-
2GG,/	-ni	.	.	4G/	.	0ryy	.
.	.	4c/	.	4A/	.	.	.
2.G\	in	4B-/	.	4B-/	-mi-	.	.
.	.	4A/	.	4c/	.	.	.
.	.	4B-/	.	2d\	-ne	.	.
4F\	.	4A/	.	.	.	.	.
4E\	.	4G/	.	2.c/	Do-	.	.
!LO:TX:t=P:problem=kreska pseudotaktowa	!	!	!	!	!	!	!
4D\	.	4F/	.	.	.	.	.
=107-	=107-	=107-	=107-	=107-	=107-	=107-	=107-
2C/	No-	2A/	.	.	.	0ryy	.
.	.	.	.	4B-/	.	.	.
!LO:TX:t=P:♭above:problem	!	!	!	!	!	!	!
2E-X\	.	1G	.	4A/	.	.	.
!	!	!	!	!LO:TX:t=P:problem=kreska pseudotaktowa	!	!	!
.	.	.	.	4G/	.	.	.
!	!	!	!	!LO:LB:g=original	!	!	!
2.D\	-mi-	.	.	2A/	.	.	.
.	.	2F/	-mi-	1d\	.	.	.
!LO:TX:t=P:problem=kreska pseudotaktowa	!	!	!	!	!	!	!
4D\	-ne	.	.	.	.	.	.
=108-	=108-	=108-	=108-	=108-	=108-	=108-	=108-
2GG/	Do-	00Gl;	-ni.	.	.	0ryy	.
!	!	!	!	!LO:TX:t=P:♭above:problem	!	!	!
1C	.	.	.	1e-X	.	.	.
4BB-/	-mi-	.	.	4d\	-mi-	.	.
4AA/	.	.	.	4c\	.	.	.
=109-	=109-	=109-	=109-	=109-	=109-	=109-	=109-
!LO:TX:b:i:t=Osanna \nDa Capo.	!	!LO:TX:b:i:t=Osanna \nut \nsupra	!	!LO:TX:b:i:t=Osanna \nut supra	!	!LO:TX:b:i:t=Osanna da Capo.	!
0GGl;	-ni.	.	.	0dl;	-ni.	0ryy	.
==	==	==	==	==	==	==	==
*-	*-	*-	*-	*-	*-	*-	*-
!!!system-decoration: [s1,s2,s3,s4]
!!!RDF**kern: l = terminal long
!!!END: Marta Lawrence
!!!END: 2021-03-16
!!!ENC: Andrzej Borzym
!!!END: 2021-02-26
